svgs/sharp-regular/ruble-sign.svg

<svg xmlns="http://www.w3.org/2000/svg" viewBox="0 0 384 512"><!--! Font Awesome Pro 6.6.0 by @fontawesome - https://fontawesome.com License - https://fontawesome.com/license (Commercial License) Copyright 2024 Fonticons, Inc. --><path d="M88 32L64 32l0 24 0 216L0 272l0 48 64 0 0 48L0 368l0 48 64 0 0 40 0 24 48 0 0-24 0-40 208 0 0-48-208 0 0-48 128 0c79.5 0 144-64.5 144-144s-64.5-144-144-144L88 32zM240 272l-128 0 0-192 128 0c53 0 96 43 96 96s-43 96-96 96z"/></svg>

<svg xmlns="http://www.w3.org/2000/svg" viewBox="0 0 384 512"><!--! Font Awesome Pro 6.4.2 by @fontawesome - https://fontawesome.com License - https://fontawesome.com/license (Commercial License) Copyright 2023 Fonticons, Inc. --><path d="M88 32H64V56 272H0v48H64v48H0v48H64v40 24h48V456 416H320V368H112V320H240c79.5 0 144-64.5 144-144s-64.5-144-144-144H88zM240 272H112V80H240c53 0 96 43 96 96s-43 96-96 96z"/></svg>
